X: 1
T:New German March
R:March
A:Lancashire
B:Winder
O:England
M:4/4
L:1/8
K:G
B>c|d>Bd>e d>cB>A|G2G>F G2B>G|A>GA>B A>GF>E|D2D>D D2d>c|!
B>cd>e A>Bc>d|B>cd>e A>Bc>d|B>G (3Bcd A>FA>B|G2G>G G2:|!
|:B>c|d>Bd>e d>gf>e|d2d>c d2B>c|d>Bg>f e>dc>B|A2A>B A2dc|!
B>GG>F G2c>B|A>DD>E D2d>c|B>G (3Bcd A>FA>B|G2GF G2:|!
